X:1
T:Interplay
C:1962 - Bill Evans
Z:www.realbook.site
L:1/8
M:4/4
I:linebreak $
K:Fmin
V:1 treble nm=" " snm=" "
V:1
"Fm7" F3 c- c A2 F |"Bbm7" Bc- (3cGE F2 z A |"Fm7" GFBA dcAF |$"F7" DF (3GEF z2 f2- | %4
"Bbm7" f3 c B2 df | cB- (3Bef B2 z d |$"Fm7" efcd Be (3cAf- |"Ab7" (3fdB (3cAF z2 c2- | %8
"Gm7b5" c2 B2- BG c2- |$"C7" cd- (3dBG c2 z d- |"Fm7" dc (3AFC"Dm7b5" (3DFA (3cGF | %11
"Dbmaj7" (3BAF (3GAF"Gbmaj7" z4 |] %12

